packages/icons/src/SVG/undo.svg

<svg width="12" height="12" viewBox="0 0 12 12" fill="none" xmlns="http://www.w3.org/2000/svg">
<path d="M7.99999 11C10.2371 11 12.0393 9.16531 11.9993 6.92858C11.9604 4.74763 10.1813 3 7.99999 3H4.06305L4.06305 1L0.0630503 3.5L4.06305 6V4H7.99999C9.63596 4 10.9703 5.31072 10.9995 6.94644C11.0295 8.62398 9.6778 10 7.99999 10H0.0630455V11H7.99999Z" fill="#4C505B"/>
</svg>

<!-- Generated by IcoMoon.io -->
<svg version="1.1" xmlns="http://www.w3.org/2000/svg" width="12" height="12" viewBox="0 0 12 12">
<title>undo</title>
<path d="M8 11c2.237 0 4.039-1.835 3.999-4.071-0.039-2.181-1.818-3.929-3.999-3.929h-3.937l0-2-4 2.5 4 2.5v-2h3.937c1.636 0 2.97 1.311 3 2.946 0.030 1.678-1.322 3.054-3 3.054h-7.937v1h7.937z"></path>
</svg>
